X:1
T:To a Wild Rose
T:Edward Mac Dowell (1800-1906)
T:To a Wild Rose
C:Edward Mac Dowell (1800-1906)
%%score { ( 1 2 ) | ( 3 4 ) }
L:1/8
Q:1/4=88
M:2/4
K:A
V:1 treble nm="Piano" snm="Pno."
V:2 treble 
V:3 bass 
V:4 bass 
V:1
!p! (ce e2) | (Be e2) |!<(! (cefa)!<)! |!>(! (f2 c2)!>)! |!p! (FB B2) | (c2 G2) | (FB B2) | [CA]4 | %8
!pp! (ce e2) | (Be e2) |!<(! (cefa!<)! | g2!mp! f2) |!p! (a2!>(! f2 | e2 c2) | (FB!>)! B2 | %15
!pp! [CA]4) |!>(! (e3 B)!>)! | (dA) A2 | (cBAB | c2 e2) | [Acg]4 | (gfef) | [Acg]4 | (gfef) | %24
!f! ([=Bdg][df=b] [dfb]2) | ([dfb][fgd'] [fgd']2) | ([gbf'][fbd'] [gbf'][fbd'] | [gbf']4) | %28
!p! (ce e2) | (Be e2) |!<(! (cefa)!<)! |!>(! (f2 c2)!>)! |!p! (FB B2) | (c2 G2) | (FB B2 | [CA]4) | %36
!>(! (e3 ^d!>)! | =dA A2) |!>(! (cBAB!>)! | c2 e2-) |!mp!!>(! A4 | =dA A2 | cBAB | c2!>)! e2 | %44
!p!!>(! (cBAB!>)! |!<(! [Ec]2!<)!!>)!!>(! [Ae]2) |!pp! [ca]4 | [=DE]4 |!ppp! F A3- | [CA]4- | %50
 [CA]2 z2 |] %51
V:2
 A4 | G4 | A4 | A4 | =D4 | E4 | D4 | x4 | A4 | G4 | A4 | A4 | A4 | E4 | =D4 | x4 | G4 | D4 | D4 | %19
 E4 | x4 | [A^B]4 | x4 | [A^B]4 | x4 | x4 | x4 | x4 | A4 | G4 | A4 | A4 | =D4 | E4 | D4 | x4 | G4 | %37
 F4 | D4 | E4 | e2 ^d x | F4 | =F4 | E4 | D4 | x4 | x4 | x4 | C4- | x4 | x4 |] %51
V:3
 [A,E]4 | [A,DE]4 | [F,C]4 | [F,B,^D]4 | [E,G,]4 | [C,G,]4 | [E,G,]4 | [A,,E,]4 | [A,E]4 | %9
 [A,DE]4 | [F,C]4 | [F,B,^D]4 | [E,C]4 | ([C,G,]C C2) | [E,G,]4 | [A,,E,]4 | [B,D]4 | [F,A,]4 | %18
 [=F,G,]4 | [E,A,C]4 | (EC C2) | ^D4 | (EC C2) | ^D4 | (EG G2) | (GB) B2 | (dBdB | d4) | [A,E]4 | %29
 [A,DE]4 | [F,C]4 | [F,B,^D]4 | [E,G,]4 | [C,G,]4 | [E,G,]4 | [A,,E,]4 | [A,,-E,B,]4 | A,4 | %38
 [A,,-=F,]4 | E,4- | C2 =C2 | B,2 A,2 | G,2 =F,2 | E,4 | [A,,-=F,]4 | E,2 C2 | [^DF]4 | [E,G,]4 | %48
 [A,,E,]4- | [A,,E,]4- | [A,,E,]2 z2 |] %51
V:4
 x4 | x4 | x4 | x4 | x4 | x4 | x4 | x4 | x4 | x4 | x4 | x4 | x4 | x4 | x4 | x4 | x4 | x4 | x4 | %19
 x4 | x4 | x4 | x4 | x4 | x4 | x4 | x4 | x4 | x4 | x4 | x4 | x4 | x4 | x4 | x4 | x4 | x4 | A,,4 | %38
 x4 | A,,4 | [A,,-E,]4 | A,,4- | A,,4- | A,,4- | x4 | A,,4 | x4 | x4 | x4 | x4 | x4 |] %51

